X:1
T:Hoosen Johnny
M:4/4
L:1/4
K:C
 G/2| c/2c/2 c A G| c3/2 c/2A/2 G3/2| c c e/2 g3/2| c3/2 c/2A/2| G G/2|\
 c/2c/2 c A G| c3/2 c/2e/2 g3/2| e2 d3/2 c/2| c4| c4| g2 a3/2 a/2|\
 g4| e2 f3/2 f/2| e3 G| c/2c/2 c A G| c3/2 c/2A/2 G3/2| e2 d3/2 d/2|\
 c3 z/2||
